X:1
T:A country pair
T:Thomas Weelkes
T:A country pair
C:Thomas Weelkes
%%score [ 1 2 3 ]
L:1/8
Q:1/4=140
M:4/4
K:F
V:1 treble nm="Soprano 1" snm="S 1"
V:2 treble nm="Soprano 2" snm="S 2"
V:3 alto nm="Alto" snm="A"
V:1
 z8 | z2 c2 A2 d2 | c6 f2 | f2 e2 d3 d | c2 A2 B2 A2 | G3 G F4 | z4 z2 e2 | f3 d e3 g | fedd c4 | %9
w: |A coun- try|pair were|walk- ing all a-|lone, were walk- ing|all a- lone,|And|wan- ton- ly were|tal- king to each one,|
 z2 A2 GFGA | G2 G2 z2 B2 | AGAB A3 d | c3 B A3 d | c3 B AA G2- | GF F4 E2 | F4 c4 | c6 d2 | %17
w: And wan- ton- ly were|tal- king, And|wan- ton- ly were tal- king|to each one, And|wan- ton- ly were tal-|* king to each|one: Quoth|she, I|
 c2 B2 A2 A2 | G2 G2 z2 A2 | =B2 d2 ^c2 c2 | d4 d4 | z4 f4- | f4 e4 | z4 d4- | d4 c4 | z8 | %26
w: will not hate nor|love thee, I|will not hate nor|love thee;|Ah|_ me,|Ah|_ me,||
 z4 z2 A2 | B2 c2 A2 e2 | f2 g2 e4 | z8 | g8 | f8 | e4 f4- | f4 e4 | f8 | e8 | d8 | c8 | B8 | A8 | %40
w: what|wilt thou do? what|wilt thou do?||Take|time|and thou|_ shalt|prove|me,|Take|time|and|thou|
 G2 F4 E2 | F4 F4 | B8 | z4 z2 F2 | G6 F2 | E4 z2 A2 | G2 F4 E2 | F8 | z4 z2 F2 | f3 f e2 e2 | %50
w: shalt prove _|me, A-|las!|I|know not|how, I|know _ not|how.|What|tho' I wed, I|
 d2 e2 c4- | c4 z2 F2 | c3 c B2 F2- | F2 F4 E2 | F2 CD E F2 E | F2 D2 C4 | z2 c2 de f2- | %57
w: am thy friend,|_ What|tho' I wed, I|_ am thy|friend, I _ am _ thy|friend, thy friend,|Then kiss me, Kate,|
 f2 e2 f2 d2 | c6 A2 | de f2 ef g2 | z2 c2 de f2 | e2 e2 d2 A2 | Bc d2 c2 Bc | d2 d2 c3 B | A8 | %65
w: _ and so an|end, Then|kiss me, Kate, kiss me, Kate,|Then kiss me, Kate,|kiss me, Kate, Then|kiss me, Kate, kiss me, _|Kate, and so an|end,|
 z8 | z2 F2 c3 c | B2 c2 A3 A | G2 F2 f3 f | e2 f2 d3 d | c2 F2 B3 B | A2 A2 G2 G2 | F4 z2 G2 | %73
w: |What tho' I|wed, I am thy|friend, What tho' I|wed, I am thy|friend, What tho' I|wed, I am thy|friend, Then|
 AB c4 =B2 | c3 B A4 | z2 G2 AB c2 | z2 F2 GA B2 | A2 G3 F A2- | A2 G2 F2 F2 | GA B2 A2 G2- | %80
w: kiss me, Kate, and|so an end,|Then kiss me, Kate,|Then kiss me, Kate,|and so an end,|_ an end, Then|kiss me, Kate, and so|
 G2 F2 G4- | G2 F2 F4- | F4 E4 | F8 |] %84
w: _ an end,|_ and so|_ an|end.|
V:2
 z8 | F4 c2 B2 | A6 F2 | AB c4 =B2 | c2 c2 de f2- | f2 e2 f4 | z4 z2 G2 | A3 B c3 e | dcc=B c4 | %9
w: |A coun- try|pair were|walk- ing all a-|lone, were walk- ing all|_ a- lone,|And|wan- ton- ly were|tal- king to each one,|
 z2 f2 edef | e2 e2 z2 d2 | cBcd c3 B | A3 d c3 B | A3 d c2 B2 | A2 A2 G2 G2 | A8 | z4 z2 D2 | %17
w: And wan- ton- ly were|tal- king, And|wan- ton- ly were tal- king|to each one, And|wan- ton- ly were|tal- king to each|one:|I|
 E2 G2 ^F2 F2 | G2 G2 z2 F2 | G2 F2 E2 E2 | D4 D4 | z4 d4- | d4 ^c4 | z4 B4- | B4 A4 | z4 z2 A2 | %26
w: will not hate nor|love thee, I|will not hate nor|love thee;|Ah|_ me,|Ah|_ me,|what|
 B2 c2 A2 F2 | D2 E2 F2 G2 | A2 =B2 c4 | z4 d4- | d4 c4- | c4 =B4 | c4 A4 | G4 G4 | F2 G2 A2 =B2 | %35
w: wilt thou do? what|wilt thou do? what|wilt thou do?|Take|_ time|_ and|thou shalt|prove me,|thou shalt prove _|
 c8 | F4 G4- | G2 F2 F4- | F4 E4 | F4 C2 D2 | E2 F2 G4 | A4 A4 | d8 | z4 z2 A2 | B6 A2 | G4 z2 c2 | %46
w: me,|and thou|_ shalt prove|_ _|me, and _|thou shalt prove|me, A-|las!||know not|how, I|
 B4 G4 | A8 | z8 | z2 F2 c3 c | B2 c2 A3 A | G2 F2 f3 f | e2 f2 d3 d | c2 F2 B3 B | A2 A2 G2 G2 | %55
w: know not|how.||What tho' I|wed, I am thy|friend, What tho' I|wed, I am thy|friend, What tho' I|wed, I am thy|
 F4 z2 G2 | AB c4 =B2 | c3 B A4 | z2 G2 AB c2 | z2 F2 GA B2 | A2 G3 F A2- | A2 G2 F2 F2 | %62
w: friend, Then|kiss me, Kate, and|so an end,|Then kiss me, Kate,|Then kiss me, Kate,|and so an end,|_ an end, Then|
 GA B2 A2 G2- | GF F4 E2 | F8 | z4 z2 F2 | f3 f e2 e2 | d2 e2 c4- | c4 z2 F2 | c3 c B2 F2- | %70
w: kiss _ me, Kate, and|_ _ so an|end,|What|tho' I wed, I|am thy friend,|_ What|tho' I wed, I|
 F2 F4 E2 | F2 CD E F2 E | F2 D2 C4 | z2 c2 de f2- | f2 e2 f2 d2 | c6 A2 | de f2 ef g2 | %77
w: _ am thy|friend, I _ am _ thy|friend, thy friend,|Then kiss me, Kate,|_ and so an|end, Then|kiss me, Kate, kiss me, Kate,|
 z2 c2 de f2 | e2 e2 d2 A2 | Bc d2 c2 Bc | d8 | c4 B2 A2 | G2 F2 G4 | A8 |] %84
w: Then kiss me, Kate,|kiss me, Kate, Then|kiss me, Kate, and so an|end,|and _ _|so _ an|end.|
V:3
 z8 | z8 | z8 | z8 | z8 | z2 C2 D3 B, | C3 A, B,A,G,G, | F,4 z4 | z2 G,2 C3 A, | B,2 F,2 C4- | %10
w: |||||And wan- ton-|ly were tal- king to each|one,|And wan- ton-|ly were tal-|
 C2 C2 B,4 | F8 | F,8 | z4 z2 G,2 | A,3 B, CB, C2 | F,8 | z8 | z8 | z8 | z8 | z8 | D8 | A,8 | D8 | %24
w: * king to|each|one,|were|tal- king to _ each|one:||||||Ah|me,|Ah|
 F6 F2 | C4 z2 F2 | D2 E2 F4 | z4 z2 E2 | D2 G2 C4 | F8 | E8 | D8 | C8 | C8 | D8 | C8 | B,8 | A,8 | %38
w: me, said|he, what|wilt thou do?|what|wilt thou do?|Take|time|and|thou|shalt|prove|me,|Take|time|
 G,8 | F,2 G,2 A,2 B,2 | C8 | F,8 | z4 B,4 | F6 F2 | _E6 F2 | C6 F,2 | B,4 C4 | F,4 z2 F,2 | %48
w: and|thou _ shalt _|prove|me,|Quoth|he, I|know not|how, I|know not|how. What|
 F3 F E2 F2 | D3 D C4 | z2 C2 F3 F | E2 F2 D3 D | C2 F,2 B,3 B, | A,2 B,2 G,3 G, | F,4 z2 C2 | %55
w: tho' I wed, I|am thy friend,|What tho' I|wed, I am thy|friend, What tho' I|wed, I am thy|friend, Then|
 DE F4 E2 | F2 E2 D4 | z2 C2 DE F2- | F2 E2 F2 F,2 | G,A, B,2 z2 G,2 | A,B, C2 B,2 F,2 | %61
w: kiss me, Kate, and|so an end,|Then kiss me, Kate,|_ I say, Then|kiss me, Kate, Then|kiss me, Kate, kiss me,|
 C2 C2 DE F2 | _E2 B,2 CD E2 | D2 B,2 C4 | F,4 z2 F,2 | F3 F E2 F2 | D3 D C4 | z2 C2 F3 F | %68
w: Kate, Then kiss _ me,|Kate, Then kiss me, Kate,|and so an|end, What|tho' I wed, I|am thy friend,|What tho' I|
 E2 F2 D3 D | C2 F,2 B,3 B, | A,2 B,2 G,3 G, | F,4 z2 C2 | DE F4 E2 | F2 E2 D4 | z2 C2 DE F2- | %75
w: wed, I am thy|friend, What tho' I|wed, I am thy|friend, Then|kiss me, Kate, and|so an end,|Then kiss me, Kate,|
 F2 E2 F2 F,2 | G,A, B,2 z2 G,2 | A,B, C2 B,2 F,2 | C2 C2 DE F2 | _E2 B,2 CD E2 | D4 B,4 | C8- | %82
w: _ I say, Then|kiss me, Kate, Then|kiss me, Kate, kiss me,|Kate, Then kiss me, Kate,|Then _ kiss me, Kate,|and so|an|
 C8 | F,8 |] %84
w: _|end.|

